X:5533
T:Rezijanka I
O:england
C:Trad.
M:2/4
L:1/8
Q:1/4=120
E:10
P:(DG)L
K:D
P:D
d>d\
|:e>f f>g | e>d e>f | e>e d>c |1 d2 d>d :|2 d2-d3/2G/2 ||\
K:G
P:G
|:A>B B>c | A>G A>B | A>A G>F |1 G2 G>G :|2 G>A d>d ||\
K:D
P:L
|:e>f f>g | e>d e>f | e>e d>c |1 d2 d>d :|2 d>f d>d|
|:e>f f>g | e>d e>f | e>e d>c |1 d2 d>d :|2 d2 z2 | G4


